X: 1
T: Father Kelly's
M: 4/4
L: 1/8
R: reel
K: Gmin
Ac|:dGGG DGBd|cFFF CFAc|dGGG DGBD|AdcA G2Ac|
dGGG DGBd|cFFF CFAc|dGGG DGBD|AdcA G2Ac:|
|:dggg ggag|fdcA FGAc|dggg ggag|fgaf g2gf|
dggg ggag|fdcA FGAc|dGGG ^dGdG|AdcA G4:|
